assets/efishery/ikan-fill.svg

<svg width="24" height="25" viewBox="0 0 24 25" fill="none" xmlns="http://www.w3.org/2000/svg">
<path d="M14.8244 6.06681C14.268 5.34138 13.3029 4.38589 12.1259 3.80197C10.8963 3.19192 9.34442 2.95457 7.85159 3.94979C7.59919 4.11806 7.473 4.4218 7.53187 4.71938C7.59074 5.01696 7.82307 5.24977 8.12052 5.30927C8.3923 5.36362 8.77314 5.54569 9.08002 5.82026C9.27499 5.99471 9.39705 6.16596 9.46126 6.31936C8.51911 6.60766 7.56608 7.03576 6.6894 7.64507C4.45854 9.19556 2.80606 11.8646 3.01837 16.1109C3.01913 16.126 3.02035 16.1412 3.02203 16.1562C3.07816 16.6614 3.30064 17.2548 3.59075 17.8268C3.88807 18.4129 4.28628 19.0347 4.74539 19.6058C5.20275 20.1747 5.73735 20.7143 6.3141 21.1177C6.88304 21.5156 7.55407 21.8234 8.26742 21.8234C9.78405 21.8234 10.5837 20.5091 10.8636 19.5295C11.0114 19.0119 11.0629 18.4524 10.9729 17.98C10.9283 17.7455 10.838 17.476 10.6531 17.2495C10.4501 17.0008 10.144 16.8234 9.76742 16.8234C9.55672 16.8234 9.32858 16.8657 9.13647 16.9068C9.00389 16.9351 8.85233 16.9713 8.70116 17.0073C8.62824 17.0247 8.55505 17.0422 8.4845 17.0587C8.02306 17.1663 7.54302 17.263 7.07538 17.2736C6.61144 17.2842 6.20733 17.2083 5.87286 17.0115C5.59582 16.8484 5.31331 16.5712 5.08096 16.0754C5.26292 15.7223 5.62902 15.2255 6.17727 14.781C6.846 14.2388 7.72599 13.8234 8.76742 13.8234C9.27036 13.8234 10.0317 14.0022 11.0426 14.2887C11.3043 14.3629 11.5801 14.4435 11.8661 14.527C12.6132 14.7452 13.4306 14.9839 14.2529 15.1841C14.1661 15.041 14.0855 14.8977 14.0107 14.7541C12.3754 11.6147 13.6212 8.54874 15.4057 6.85464C15.5691 6.69949 15.7384 6.55436 15.9121 6.42059C15.5681 6.2815 15.2058 6.16248 14.8244 6.06681Z" fill="#1D1D1D"/>
<path fill-rule="evenodd" clip-rule="evenodd" d="M16.9398 6.92392C16.6548 7.09928 16.3689 7.31905 16.0942 7.57986C14.5449 9.05071 13.5197 11.6469 14.8976 14.2921C15.103 14.6865 15.3633 15.0857 15.6865 15.4859C16.4302 15.614 17.1809 15.6922 17.907 15.6796C19.0821 15.6592 20.249 15.3997 21.2174 14.6734C21.4365 14.5091 21.5486 14.2385 21.5099 13.9674C21.3278 12.6927 20.7103 10.7912 19.4362 9.14021C18.7864 8.29819 17.9623 7.51833 16.9398 6.92392ZM18.2675 11.0734C18.2675 11.3496 18.0436 11.5734 17.7675 11.5734C17.4913 11.5734 17.2675 11.3496 17.2675 11.0734C17.2675 10.7973 17.4913 10.5734 17.7675 10.5734C18.0436 10.5734 18.2675 10.7973 18.2675 11.0734Z" fill="#1D1D1D"/>
</svg>

<svg viewBox="0 0 24 25" xmlns="http://www.w3.org/2000/svg">
  <path d="M14.824 6.067c-.556-.726-1.521-1.681-2.698-2.265-1.23-.61-2.782-.847-4.274.148a.75.75 0 0 0 .269 1.36c.271.054.652.236.959.51.195.175.317.346.381.5A9.957 9.957 0 0 0 6.69 7.644c-2.23 1.55-3.883 4.22-3.67 8.466l.003.045c.056.505.279 1.099.569 1.67a10.44 10.44 0 0 0 1.154 1.78c.458.569.992 1.108 1.57 1.512.568.398 1.24.705 1.952.705 1.517 0 2.317-1.314 2.597-2.294.147-.517.199-1.077.109-1.549a1.63 1.63 0 0 0-.32-.73 1.13 1.13 0 0 0-.886-.427c-.21 0-.438.043-.63.084-.133.028-.285.064-.436.1l-.216.052c-.462.107-.942.204-1.41.215-.464.01-.868-.066-1.202-.262-.277-.164-.56-.44-.792-.937.182-.353.548-.85 1.096-1.294.669-.542 1.549-.958 2.59-.958.503 0 1.265.18 2.276.466.261.074.537.155.823.238a54.73 54.73 0 0 0 2.387.657 7.588 7.588 0 0 1-.242-.43c-1.636-3.14-.39-6.205 1.395-7.9.163-.155.332-.3.506-.433a8.258 8.258 0 0 0-1.088-.354z"/>
  <path fill-rule="evenodd" clip-rule="evenodd" d="M16.94 6.924a5.18 5.18 0 0 0-.846.656c-1.55 1.47-2.574 4.067-1.196 6.712.205.395.465.794.789 1.194a11.97 11.97 0 0 0 2.22.194c1.175-.02 2.342-.28 3.31-1.007a.75.75 0 0 0 .293-.706c-.182-1.274-.8-3.176-2.074-4.827a8.662 8.662 0 0 0-2.496-2.216zm1.327 4.15a.5.5 0 1 1-1 0 .5.5 0 0 1 1 0z"/>
</svg>
